resources/svg/train-fill.svg

<svg fill="currentColor" viewBox="0 0 24 24" xmlns="http://www.w3.org/2000/svg"><path d="M17.2 20L19 21.5V22H5V21.5L6.8 20H5C3.89543 20 3 19.1046 3 18V7C3 4.79086 4.79086 3 7 3H17C19.2091 3 21 4.79086 21 7V18C21 19.1046 20.1046 20 19 20H17.2ZM5 7V11H19V7H5ZM12 18C13.1046 18 14 17.1046 14 16C14 14.8954 13.1046 14 12 14C10.8954 14 10 14.8954 10 16C10 17.1046 10.8954 18 12 18Z"/></svg>

<svg xmlns="http://www.w3.org/2000/svg" viewBox="0 0 24 24" fill="currentColor">
    <g>
        <path fill="none" d="M0 0h24v24H0z"/>
        <path d="M17.2 20l1.8 1.5v.5H5v-.5L6.8 20H5a2 2 0 0 1-2-2V7a4 4 0 0 1 4-4h10a4 4 0 0 1 4 4v11a2 2 0 0 1-2 2h-1.8zM5 7v4h14V7H5zm7 11a2 2 0 1 0 0-4 2 2 0 0 0 0 4z"/>
    </g>
</svg>
